markup/static/img/svg/inst-hover.svg

<?xml version="1.0" encoding="UTF-8"?>
<svg width="40px" height="40px" viewBox="0 0 40 40" version="1.1" xmlns="http://www.w3.org/2000/svg" xmlns:xlink="http://www.w3.org/1999/xlink">
    <!-- Generator: Sketch 45.2 (43514) - http://www.bohemiancoding.com/sketch -->
    <title>white full insta</title>
    <desc>Created with Sketch.</desc>
    <defs></defs>
    <g id="Page-1" stroke="none" stroke-width="1" fill="none" fill-rule="evenodd">
        <g id="Footer" transform="translate(-1330.000000, -72.000000)">
            <g id="HEADER">
                <g id="Group-10" transform="translate(70.000000, 60.000000)">
                    <g id="Group-9" transform="translate(1180.000000, 12.000000)">
                        <g id="white-full-insta" transform="translate(80.000000, 0.000000)">
                            <path d="M20,0.0417536534 C8.97736952,0.0417536534 0.0417536534,8.97736952 0.0417536534,20 C0.0417536534,31.0226305 8.97736952,39.9582463 20,39.9582463 C31.0226305,39.9582463 39.9582463,31.0226305 39.9582463,20 C39.9582463,8.97736952 31.0226305,0.0417536534 20,0.0417536534 Z" id="Shape" fill="#FFFFFF" fill-rule="nonzero"></path>
                            <path d="M13.0992902,10.5636743 L27.1291858,10.5636743 C28.4620459,10.5636743 29.519833,11.6168685 29.519833,12.9495616 L29.519833,26.9797912 C29.519833,28.3123173 28.4621294,29.4364092 27.1291858,29.4364092 L13.0992902,29.4364092 C11.7667641,29.4364092 10.6471816,28.3124008 10.6471816,26.9797912 L10.6471816,12.9495616 C10.6471816,11.6168685 11.7667641,10.5636743 13.0992902,10.5636743 L13.0992902,10.5636743 Z M24.4265553,12.651357 C23.9589144,12.651357 23.5908142,13.006263 23.5908142,13.4736534 L23.5908142,15.5077244 C23.5908142,15.9751148 23.9589144,16.3256785 24.4265553,16.3256785 L26.56,16.3256785 C27.0276409,16.3256785 27.4321503,15.9751148 27.4321503,15.5077244 L27.4321503,13.4736534 C27.4321503,13.006263 27.0276409,12.651357 26.56,12.651357 L24.4265553,12.651357 L24.4265553,12.651357 Z M27.4321503,18.4968685 L25.7575783,18.4968685 C25.9144885,18.9979123 25.9994154,19.5597495 25.9994154,20.1226722 C25.9994154,23.2622129 23.3724426,25.8101044 20.1322756,25.8101044 C16.8919415,25.8101044 14.2653027,23.2606263 14.2653027,20.1210856 C14.2653027,19.5581628 14.3500626,18.9979123 14.5073069,18.4968685 L12.7348643,18.4968685 L12.7348643,26.4824217 C12.7348643,26.8952818 13.1114823,27.2651357 13.5240919,27.2651357 L26.668309,27.2651357 C27.0812526,27.2651357 27.4321503,26.8952818 27.4321503,26.4824217 L27.4321503,18.4968685 L27.4321503,18.4968685 Z M20.1322756,16.2505219 C18.0386639,16.2505219 16.3413779,17.8950313 16.3413779,19.9237578 C16.3413779,21.9524843 18.0386639,23.5969937 20.1322756,23.5969937 C22.2260543,23.5969937 23.9231733,21.9524843 23.9231733,19.9237578 C23.9231733,17.8950313 22.2260543,16.2505219 20.1322756,16.2505219 Z" id="Shape" fill="#0829CC"></path>
                        </g>
                    </g>
                </g>
            </g>
        </g>
    </g>
</svg>

<svg id="Layer_1" data-name="Layer 1" xmlns="http://www.w3.org/2000/svg" viewBox="0 0 39.92 39.92"><title>inst-hover</title><g id="Page-1"><g id="INDEX-PAGE"><g id="FOOT"><g id="Group-10"><g id="Group-9"><g id="white-full-insta"><path id="Shape" d="M20,0A20,20,0,1,0,40,20,20,20,0,0,0,20,0Z" transform="translate(-0.04 -0.04)" style="fill:#fff"/><path id="Shape-2" data-name="Shape" d="M13.1,10.56h14a2.37,2.37,0,0,1,2.39,2.39V27a2.43,2.43,0,0,1-2.39,2.46h-14A2.48,2.48,0,0,1,10.65,27v-14a2.42,2.42,0,0,1,2.45-2.39h0Zm11.33,2.09a0.82,0.82,0,0,0-.84.82v2a0.81,0.81,0,0,0,.84.82h2.13a0.84,0.84,0,0,0,.87-0.82v-2a0.85,0.85,0,0,0-.87-0.82H24.43Zm3,5.85H25.76A5.51,5.51,0,0,1,26,20.12a5.87,5.87,0,0,1-11.73,0,5.49,5.49,0,0,1,.24-1.62H12.73v8a0.82,0.82,0,0,0,.79.78H26.67a0.79,0.79,0,0,0,.76-0.78v-8h0Zm-7.3-2.25a3.68,3.68,0,1,0,3.79,3.67A3.73,3.73,0,0,0,20.13,16.25Z" transform="translate(-0.04 -0.04)" style="fill:#0e4e61"/></g></g></g></g></g></g></svg>
